styles/5/Numix/96/places/grey-folder-hdd.svg

<?xml version="1.0" encoding="UTF-8" standalone="no"?>
<!-- Created with Inkscape (http://www.inkscape.org/) -->

<svg
   xmlns:dc="http://purl.org/dc/elements/1.1/"
   xmlns:cc="http://creativecommons.org/ns#"
   xmlns:rdf="http://www.w3.org/1999/02/22-rdf-syntax-ns#"
   xmlns:svg="http://www.w3.org/2000/svg"
   xmlns="http://www.w3.org/2000/svg"
   xmlns:xlink="http://www.w3.org/1999/xlink"
   xmlns:sodipodi="http://sodipodi.sourceforge.net/DTD/sodipodi-0.dtd"
   xmlns:inkscape="http://www.inkscape.org/namespaces/inkscape"
   width="96"
   height="96"
   id="svg2"
   version="1.1"
   inkscape:version="0.91 r"
   sodipodi:docname="grey-folder-hdd.svg">
  <defs
     id="defs4">
    <linearGradient
       id="linearGradient3886">
      <stop
         style="stop-color:#000000;stop-opacity:1;"
         offset="0"
         id="stop3888" />
      <stop
         style="stop-color:#000000;stop-opacity:0.19607843;"
         offset="1"
         id="stop3890" />
    </linearGradient>
    <radialGradient
       r="24"
       fy="40.5"
       fx="24"
       cy="40.5"
       cx="24"
       gradientTransform="matrix(2.5,0,0,0.41666654,-12,1019.4872)"
       gradientUnits="userSpaceOnUse"
       id="radialGradient3235"
       xlink:href="#linearGradient3886"
       inkscape:collect="always" />
  </defs>
  <sodipodi:namedview
     id="base"
     pagecolor="#ffffff"
     bordercolor="#666666"
     borderopacity="1.0"
     inkscape:pageopacity="0.0"
     inkscape:pageshadow="2"
     inkscape:zoom="2.20375"
     inkscape:cx="63.174301"
     inkscape:cy="51.107055"
     inkscape:document-units="px"
     inkscape:current-layer="layer1"
     showgrid="true"
     inkscape:window-width="1280"
     inkscape:window-height="998"
     inkscape:window-x="0"
     inkscape:window-y="0"
     inkscape:window-maximized="1">
    <inkscape:grid
       type="xygrid"
       id="grid2990"
       empspacing="5"
       visible="true"
       enabled="true"
       snapvisiblegridlinesonly="true" />
  </sodipodi:namedview>
  <metadata
     id="metadata7">
    <rdf:RDF>
      <cc:Work
         rdf:about="">
        <dc:format>image/svg+xml</dc:format>
        <dc:type
           rdf:resource="http://purl.org/dc/dcmitype/StillImage" />
        <dc:title />
      </cc:Work>
    </rdf:RDF>
  </metadata>
  <g
     inkscape:label="Body"
     inkscape:groupmode="layer"
     id="layer1"
     transform="translate(0,-956.3622)">
    <path
       inkscape:connector-curvature="0"
       style="opacity:0.1;fill:url(#radialGradient3235);fill-opacity:1;stroke:none"
       d="m 48,1026.3622 c -19.653098,0 -37.05594,1.5662 -48,4 l 0,12 c 10.94406,2.4338 28.346902,4 48,4 19.653098,0 37.05594,-1.5662 48,-4 l 0,-12 c -10.94406,-2.4338 -28.346902,-4 -48,-4 z"
       id="path3868" />
    <rect
       style="fill:#757575;fill-opacity:1;stroke:none"
       id="rect2987"
       width="92"
       height="64.000038"
       x="2"
       y="976.36218"
       rx="10"
       ry="10" />
    <path
       style="opacity:0.2;fill:#ffffff;fill-opacity:1;stroke:none"
       d="m 12,976.3622 c -5.54,0 -10,4.46 -10,10 l 0,4 c 0,-5.54 4.46,-10 10,-10 l 72,0 c 5.54,0 10,4.46 10,10 l 0,-4 c 0,-5.54 -4.46,-10 -10,-10 l -72,0 z"
       id="rect3797"
       inkscape:connector-curvature="0" />
    <path
       style="fill:#bdbdbd;fill-opacity:1;stroke:none"
       d="m 12,992.3622 16,0 c 22,-2 18,-24 32,-24 l 24,0 c 5.54,0 10,4.46 10,10 l 0,52 c 0,5.54 -4.46,10 -10,10 l -72,0 c -5.54,0 -10,-4.46 -10,-10 l 0,-28 c 0,-6 4,-10 10,-10 z"
       id="rect3776"
       inkscape:connector-curvature="0"
       sodipodi:nodetypes="cccsssssscc" />
    <path
       style="opacity:0.15;fill:#000000;fill-opacity:1;stroke:none"
       d="m 2,1026.3622 0,4 c 0,5.54 4.46,10 10,10 l 72,0 c 5.54,0 10,-4.46 10,-10 l 0,-4 c 0,5.54 -4.46,10 -10,10 l -72,0 c -5.54,0 -10,-4.46 -10,-10 z"
       id="path3786"
       inkscape:connector-curvature="0" />
    <g
       style="fill:#000000;fill-opacity:0.09803922"
       transform="matrix(2,0,0,2,10,998.3622)"
       id="g7570">
      <path
         style="fill:#000000;fill-opacity:0.09803922;stroke:none"
         d="M 3,2 C 1.892,2 1,2.892 1,4 l 0,10 c 0,1.108 0.892,2 2,2 l 10,0 c 1.108,0 2,-0.892 2,-2 L 15,4 C 15,2.892 14.108,2 13,2 z M 4,3 C 4.5522847,3 5,3.4477153 5,4 5,4.5522847 4.5522847,5 4,5 3.4477153,5 3,4.5522847 3,4 3,3.4477153 3.4477153,3 4,3 z m 8,0 c 0.552285,0 1,0.447715 1,1 0,0.552285 -0.447715,1 -1,1 C 11.447715,5 11,4.552285 11,4 11,3.447715 11.447715,3 12,3 z M 8,4 c 1.6568542,0 3,1.3431458 3,3 0,1.6568542 -1.3431458,3 -3,3 C 6.3431458,10 5,8.6568542 5,7 5,5.3431458 6.3431458,4 8,4 z M 4,9 C 4.5522847,9 5,9.447715 5,10 5,10.552285 4.5522847,11 4,11 3.4477153,11 3,10.552285 3,10 3,9.447715 3.4477153,9 4,9 z m 8,0 c 0.552285,0 1,0.447715 1,1 0,0.552285 -0.447715,1 -1,1 -0.552285,0 -1,-0.447715 -1,-1 0,-0.552285 0.447715,-1 1,-1 z m -8.5,5 9,0 c 0.277,0 0.5,0.223 0.5,0.5 0,0.277 -0.223,0.5 -0.5,0.5 l -9,0 C 3.223,15 3,14.777 3,14.5 3,14.223 3.223,14 3.5,14 z"
         id="path7572"
         inkscape:connector-curvature="0"
         sodipodi:nodetypes="sssssssssssssssssssssssssssssssssssssssss" />
      <path
         transform="matrix(0.51179914,0,0,0.41337621,10.830688,4.5398266)"
         d="m -3.5769656,5.9514151 c 0,1.3360341 -0.874787,2.4191038 -1.9538915,2.4191038 -1.0791045,0 -1.9538915,-1.0830697 -1.9538915,-2.4191038 0,-1.3360342 0.874787,-2.4191039 1.9538915,-2.4191039 1.0791045,0 1.9538915,1.0830697 1.9538915,2.4191039 z"
         sodipodi:ry="2.4191039"
         sodipodi:rx="1.9538915"
         sodipodi:cy="5.9514151"
         sodipodi:cx="-5.5308571"
         id="path7574"
         style="fill:#000000;fill-opacity:0.09803922;stroke:none"
         sodipodi:type="arc" />
    </g>
    <g
       id="g3038"
       transform="matrix(2,0,0,2,10,996.3622)"
       style="fill:#fff8e1;fill-opacity:1">
      <path
         sodipodi:nodetypes="sssssssssssssssssssssssssssssssssssssssss"
         inkscape:connector-curvature="0"
         id="rect2984"
         d="M 3,2 C 1.892,2 1,2.892 1,4 l 0,10 c 0,1.108 0.892,2 2,2 l 10,0 c 1.108,0 2,-0.892 2,-2 L 15,4 C 15,2.892 14.108,2 13,2 z M 4,3 C 4.5522847,3 5,3.4477153 5,4 5,4.5522847 4.5522847,5 4,5 3.4477153,5 3,4.5522847 3,4 3,3.4477153 3.4477153,3 4,3 z m 8,0 c 0.552285,0 1,0.447715 1,1 0,0.552285 -0.447715,1 -1,1 C 11.447715,5 11,4.552285 11,4 11,3.447715 11.447715,3 12,3 z M 8,4 c 1.6568542,0 3,1.3431458 3,3 0,1.6568542 -1.3431458,3 -3,3 C 6.3431458,10 5,8.6568542 5,7 5,5.3431458 6.3431458,4 8,4 z M 4,9 C 4.5522847,9 5,9.447715 5,10 5,10.552285 4.5522847,11 4,11 3.4477153,11 3,10.552285 3,10 3,9.447715 3.4477153,9 4,9 z m 8,0 c 0.552285,0 1,0.447715 1,1 0,0.552285 -0.447715,1 -1,1 -0.552285,0 -1,-0.447715 -1,-1 0,-0.552285 0.447715,-1 1,-1 z m -8.5,5 9,0 c 0.277,0 0.5,0.223 0.5,0.5 0,0.277 -0.223,0.5 -0.5,0.5 l -9,0 C 3.223,15 3,14.777 3,14.5 3,14.223 3.223,14 3.5,14 z"
         style="fill:#fff8e1;fill-opacity:1;stroke:none" />
      <path
         sodipodi:type="arc"
         style="fill:#fff8e1;fill-opacity:1;stroke:none"
         id="path3007"
         sodipodi:cx="-5.5308571"
         sodipodi:cy="5.9514151"
         sodipodi:rx="1.9538915"
         sodipodi:ry="2.4191039"
         d="m -3.5769656,5.9514151 c 0,1.3360341 -0.874787,2.4191038 -1.9538915,2.4191038 -1.0791045,0 -1.9538915,-1.0830697 -1.9538915,-2.4191038 0,-1.3360342 0.874787,-2.4191039 1.9538915,-2.4191039 1.0791045,0 1.9538915,1.0830697 1.9538915,2.4191039 z"
         transform="matrix(0.51179914,0,0,0.41337621,10.830688,4.5398266)" />
    </g>
  </g>
</svg>

<!-- Created with Inkscape (http://www.inkscape.org/) -->
<svg xmlns="http://www.w3.org/2000/svg" viewBox="0 0 96 96">
 <defs>
  <radialGradient r="24" cy="40.5" cx="24" gradientTransform="matrix(2.5,0,0,0.41666654,-12,1019.4872)" gradientUnits="userSpaceOnUse" id="radialGradient3235">
   <stop style="stop-color:#000;stop-opacity:1"/>
   <stop offset="1" style="stop-color:#000;stop-opacity:0.196"/>
  </radialGradient>
 </defs>
 <g transform="translate(0,-956.3622)">
  <path d="m 48 1026.36 c -19.653 0 -37.06 1.566 -48 4 l 0 12 c 10.944 2.434 28.347 4 48 4 19.653 0 37.06 -1.566 48 -4 l 0 -12 c -10.944 -2.434 -28.347 -4 -48 -4 z" style="fill:url(#radialGradient3235);opacity:0.1;fill-opacity:1;stroke:none"/>
  <rect width="92" height="64" x="2" y="976.36" rx="10" style="fill:#757575;fill-opacity:1;stroke:none"/>
  <path d="m 12 976.36 c -5.54 0 -10 4.46 -10 10 l 0 4 c 0 -5.54 4.46 -10 10 -10 l 72 0 c 5.54 0 10 4.46 10 10 l 0 -4 c 0 -5.54 -4.46 -10 -10 -10 l -72 0 z" style="fill:#fff;opacity:0.2;fill-opacity:1;stroke:none"/>
  <path d="m 12 992.36 16 0 c 22 -2 18 -24 32 -24 l 24 0 c 5.54 0 10 4.46 10 10 l 0 52 c 0 5.54 -4.46 10 -10 10 l -72 0 c -5.54 0 -10 -4.46 -10 -10 l 0 -28 c 0 -6 4 -10 10 -10 z" style="fill:#bdbdbd;fill-opacity:1;stroke:none"/>
  <path d="m 2 1026.36 0 4 c 0 5.54 4.46 10 10 10 l 72 0 c 5.54 0 10 -4.46 10 -10 l 0 -4 c 0 5.54 -4.46 10 -10 10 l -72 0 c -5.54 0 -10 -4.46 -10 -10 z" style="fill:#000;opacity:0.15;fill-opacity:1;stroke:none"/>
  <g transform="matrix(2,0,0,2,10,998.3622)" style="fill:#000;fill-opacity:0.098">
   <path d="m 3 2 c -1.108 0 -2 0.892 -2 2 l 0 10 c 0 1.108 0.892 2 2 2 l 10 0 c 1.108 0 2 -0.892 2 -2 l 0 -10 c 0 -1.108 -0.892 -2 -2 -2 z m 1 1 c 0.552 0 1 0.448 1 1 0 0.552 -0.448 1 -1 1 -0.552 0 -1 -0.448 -1 -1 0 -0.552 0.448 -1 1 -1 z m 8 0 c 0.552 0 1 0.448 1 1 0 0.552 -0.448 1 -1 1 c -0.552 0 -1 -0.448 -1 -1 0 -0.552 0.448 -1 1 -1 z m -4 1 c 1.657 0 3 1.343 3 3 0 1.657 -1.343 3 -3 3 c -1.657 0 -3 -1.343 -3 -3 0 -1.657 1.343 -3 3 -3 z m -4 5 c 0.552 0 1 0.448 1 1 0 0.552 -0.448 1 -1 1 -0.552 0 -1 -0.448 -1 -1 0 -0.552 0.448 -1 1 -1 z m 8 0 c 0.552 0 1 0.448 1 1 0 0.552 -0.448 1 -1 1 -0.552 0 -1 -0.448 -1 -1 0 -0.552 0.448 -1 1 -1 z m -8.5 5 9 0 c 0.277 0 0.5 0.223 0.5 0.5 0 0.277 -0.223 0.5 -0.5 0.5 l -9 0 c -0.277 0 -0.5 -0.223 -0.5 -0.5 0 -0.277 0.223 -0.5 0.5 -0.5 z" style="fill:#000;fill-opacity:0.098;stroke:none"/>
   <path transform="matrix(0.51179914,0,0,0.41337621,10.830688,4.5398266)" d="m -3.577 5.951 c 0 1.336 -0.875 2.419 -1.954 2.419 -1.079 0 -1.954 -1.083 -1.954 -2.419 0 -1.336 0.875 -2.419 1.954 -2.419 1.079 0 1.954 1.083 1.954 2.419 z" style="fill:#000;fill-opacity:0.098;stroke:none"/>
  </g>
  <g transform="matrix(2,0,0,2,10,996.3622)" style="fill:#fff8e1;fill-opacity:1">
   <path d="m 3 2 c -1.108 0 -2 0.892 -2 2 l 0 10 c 0 1.108 0.892 2 2 2 l 10 0 c 1.108 0 2 -0.892 2 -2 l 0 -10 c 0 -1.108 -0.892 -2 -2 -2 z m 1 1 c 0.552 0 1 0.448 1 1 0 0.552 -0.448 1 -1 1 -0.552 0 -1 -0.448 -1 -1 0 -0.552 0.448 -1 1 -1 z m 8 0 c 0.552 0 1 0.448 1 1 0 0.552 -0.448 1 -1 1 c -0.552 0 -1 -0.448 -1 -1 0 -0.552 0.448 -1 1 -1 z m -4 1 c 1.657 0 3 1.343 3 3 0 1.657 -1.343 3 -3 3 c -1.657 0 -3 -1.343 -3 -3 0 -1.657 1.343 -3 3 -3 z m -4 5 c 0.552 0 1 0.448 1 1 0 0.552 -0.448 1 -1 1 -0.552 0 -1 -0.448 -1 -1 0 -0.552 0.448 -1 1 -1 z m 8 0 c 0.552 0 1 0.448 1 1 0 0.552 -0.448 1 -1 1 -0.552 0 -1 -0.448 -1 -1 0 -0.552 0.448 -1 1 -1 z m -8.5 5 9 0 c 0.277 0 0.5 0.223 0.5 0.5 0 0.277 -0.223 0.5 -0.5 0.5 l -9 0 c -0.277 0 -0.5 -0.223 -0.5 -0.5 0 -0.277 0.223 -0.5 0.5 -0.5 z" style="stroke:none"/>
   <path d="m -3.577 5.951 c 0 1.336 -0.875 2.419 -1.954 2.419 -1.079 0 -1.954 -1.083 -1.954 -2.419 0 -1.336 0.875 -2.419 1.954 -2.419 1.079 0 1.954 1.083 1.954 2.419 z" transform="matrix(0.51179914,0,0,0.41337621,10.830688,4.5398266)" style="stroke:none"/>
  </g>
 </g>
</svg>
